icons/mist-night.svg

<svg width="61" height="48" viewBox="0 0 61 48" fill="none" xmlns="http://www.w3.org/2000/svg">
<path d="M0 38.4061C0 38.9704 0.197811 39.4366 0.61816 39.8047C1.03851 40.1973 1.55776 40.369 2.1512 40.369H48.167C48.7604 40.369 49.255 40.1727 49.6506 39.8047C50.0709 39.4121 50.2687 38.9459 50.2687 38.4061C50.2687 37.8172 50.0709 37.3019 49.6753 36.9093C49.2797 36.4922 48.7604 36.2959 48.167 36.2959H2.1512C1.55776 36.2959 1.06323 36.4922 0.642886 36.9093C0.222537 37.3265 0 37.8417 0 38.4061ZM6.45359 30.7751C6.45359 31.364 6.67613 31.8302 7.09647 32.2228C7.44264 32.6645 7.91244 32.8853 8.55533 32.8853H54.5711C55.1398 32.8853 55.6096 32.689 56.0053 32.2719C56.4009 31.8547 56.574 31.364 56.574 30.7751C56.574 30.2108 56.3762 29.72 56.0053 29.352C55.6344 28.9839 55.1398 28.7876 54.5711 28.7876H8.55533C7.9619 28.7876 7.46737 28.9839 7.07175 29.352C6.6514 29.7446 6.45359 30.2108 6.45359 30.7751ZM6.82448 24.8372V24.7145C6.72558 25.0826 6.82448 25.2543 7.1212 25.2543H10.6818C10.8302 25.2543 10.9785 25.1316 11.1516 24.8863C11.745 23.6104 12.6105 22.5798 13.7726 21.7701C14.9347 20.9604 16.2205 20.4942 17.6052 20.396L18.9157 20.1997C19.2124 20.1997 19.3855 20.0525 19.3855 19.7581L19.5338 18.5312C19.8058 15.8813 20.9185 13.6975 22.8966 11.9063C24.8747 10.1396 27.2238 9.2563 29.9189 9.2563C32.5647 9.2563 34.9137 10.1396 36.8918 11.8817C38.8699 13.6239 40.032 15.8076 40.304 18.4331L40.4771 19.8317C40.4771 20.1261 40.6502 20.2733 40.9964 20.2733H44.9031C46.4856 20.2733 47.9445 20.6905 49.2302 21.5493C50.516 22.3835 51.5051 23.5122 52.1232 24.8863C52.2963 25.1316 52.4694 25.2543 52.6672 25.2543H56.1784C56.4751 25.2543 56.5987 25.0826 56.5493 24.7145C56.0053 23.3405 55.6344 22.4817 55.4118 22.1136C57.1921 20.5187 58.4532 18.4085 59.1208 15.8076L59.5411 14.1882C59.6153 14.041 59.5906 13.8938 59.5164 13.7956C59.4422 13.6975 59.3433 13.6239 59.2197 13.6239L57.6867 13.0841C55.486 12.4461 53.8046 11.1702 52.6425 9.20723C51.4803 7.24428 51.1836 5.15865 51.7276 2.92579L52.049 1.50265C52.1727 1.28182 52.0738 1.08553 51.7276 0.938306L49.6506 0.373958C46.9554 -0.288537 44.285 -0.0677061 41.6887 1.01192C39.0924 2.09154 37.0649 3.83366 35.5813 6.21373C33.6279 5.45309 31.724 5.08503 29.9189 5.08503C26.482 5.08503 23.4406 6.16466 20.7454 8.29936C18.0503 10.4341 16.3441 13.1822 15.5529 16.5192C13.4759 17.0099 11.6461 17.9914 10.0636 19.4882C8.48115 20.9849 7.44264 22.7761 6.82448 24.8372ZM10.7313 45.8898C10.7313 46.4787 10.9538 46.9449 11.3741 47.3375C11.7945 47.7792 12.289 48 12.833 48H58.9477C59.5164 48 60.0109 47.8037 60.4066 47.3866C60.8022 46.9695 61 46.4787 61 45.8898C61 45.3255 60.8022 44.8593 60.4066 44.4667C60.0109 44.0741 59.5164 43.9023 58.9477 43.9023H12.8577C12.2643 43.9023 11.7698 44.0986 11.3741 44.4667C10.9538 44.8593 10.7313 45.3255 10.7313 45.8898ZM39.1913 8.42205C40.0568 7.02345 41.2189 5.91929 42.6777 5.15864C44.1366 4.398 45.6696 4.07902 47.3016 4.22624C47.1285 6.77808 47.7219 9.18269 49.0324 11.4155C50.3677 13.6484 52.1974 15.2924 54.5217 16.372C54.1508 17.2308 53.5326 18.1141 52.6672 18.9974C50.3924 17.1326 47.7961 16.2248 44.9031 16.2248H44.1119C43.3206 13.0104 41.6887 10.4095 39.1913 8.42205Z" fill="#FFFBE9"/>
</svg>

<?xml version="1.0" encoding="UTF-8"?><svg id="Layer_2" xmlns="http://www.w3.org/2000/svg" viewBox="0 0 61 48"><defs><style>.cls-1{fill:#e7f3f6;}</style></defs><g id="Layer_1-2"><path id="mist-night" class="cls-1" d="M0,38.41c0,.56,.2,1.03,.62,1.4,.42,.39,.94,.56,1.53,.56H48.17c.59,0,1.09-.2,1.48-.56,.42-.39,.62-.86,.62-1.4,0-.59-.2-1.1-.59-1.5-.4-.42-.91-.61-1.51-.61H2.15c-.59,0-1.09,.2-1.51,.61-.42,.42-.64,.93-.64,1.5Zm6.45-7.63c0,.59,.22,1.06,.64,1.45,.35,.44,.82,.66,1.46,.66H54.57c.57,0,1.04-.2,1.43-.61,.4-.42,.57-.91,.57-1.5s-.2-1.06-.57-1.42c-.37-.37-.87-.56-1.43-.56H8.56c-.59,0-1.09,.2-1.48,.56-.42,.39-.62,.86-.62,1.42Zm.37-5.94v-.12c-.1,.37,0,.54,.3,.54h3.56c.15,0,.3-.12,.47-.37,.59-1.28,1.46-2.31,2.62-3.12s2.45-1.28,3.83-1.37l1.31-.2c.3,0,.47-.15,.47-.44l.15-1.23c.27-2.65,1.38-4.83,3.36-6.62,1.98-1.77,4.33-2.65,7.02-2.65s4.99,.88,6.97,2.63c1.98,1.74,3.14,3.93,3.41,6.55l.17,1.4c0,.29,.17,.44,.52,.44h3.91c1.58,0,3.04,.42,4.33,1.28,1.29,.83,2.27,1.96,2.89,3.34,.17,.25,.35,.37,.54,.37h3.51c.3,0,.42-.17,.37-.54-.54-1.37-.91-2.23-1.14-2.6,1.78-1.59,3.04-3.71,3.71-6.31l.42-1.62c.07-.15,.05-.29-.02-.39-.07-.1-.17-.17-.3-.17l-1.53-.54c-2.2-.64-3.88-1.91-5.04-3.88-1.16-1.96-1.46-4.05-.91-6.28l.32-1.42c.12-.22,.02-.42-.32-.56l-2.08-.56c-2.7-.66-5.37-.44-7.96,.64-2.6,1.08-4.62,2.82-6.11,5.2-1.95-.76-3.86-1.13-5.66-1.13-3.44,0-6.48,1.08-9.17,3.21-2.7,2.13-4.4,4.88-5.19,8.22-2.08,.49-3.91,1.47-5.49,2.97-1.58,1.5-2.62,3.29-3.24,5.35Zm3.91,21.05c0,.59,.22,1.06,.64,1.45,.42,.44,.91,.66,1.46,.66H58.95c.57,0,1.06-.2,1.46-.61,.4-.42,.59-.91,.59-1.5s-.2-1.03-.59-1.42c-.4-.39-.89-.56-1.46-.56H12.86c-.59,0-1.09,.2-1.48,.56-.42,.39-.64,.86-.64,1.42ZM39.19,8.42c.87-1.4,2.03-2.5,3.49-3.26,1.46-.76,2.99-1.08,4.62-.93-.17,2.55,.42,4.96,1.73,7.19,1.34,2.23,3.17,3.88,5.49,4.96-.37,.86-.99,1.74-1.85,2.63-2.27-1.86-4.87-2.77-7.76-2.77h-.79c-.79-3.21-2.42-5.82-4.92-7.8Z"/></g></svg>
